X: 36334
T: Sean Bui
R: jig
M: 6/8
K: Dmajor
DAD AFA|BGB AFA|DED AFA|B2c d3|
DAD AFA|BGB AFA|dfd ecA|B2c d2 A||
|:dfd ecA|dcB AFA|dfd ecA|B2c d2A:|
dfd ecA|dcB AFA|DED AFA|B2c d2f|
afd ecA|dcB AFA|DED AFA|B2c d3||

